X: 11692
T: Einini
R: waltz
M: 3/4
K: Dmajor
GA|B2 B2 dB|c2 c2 dc|BA G2 BG|AF D2 GA|
B2 B2 dB|c2 c2 dc|B2 G2 AF|G2 G2 de||
=f2 =f2 ed|e2 d2 Bc|d2 G2 BG|A2 A2 de|
=f2 =f2 ed|e2 d2 Bc|d2 G2 F2|G2 G2 de|
=f2 =f2 ed|e2 d2 Bc|d2 G2 BG|A2 A2 GA|
B2 B2 dB|c2 c2 dc|B2 G2 AF|G2 G2||

